X: 341
T: 4.e La N.lle Venitiene
T: La Nouvelle V\'enitienne
B: Robert Landrin "Potpourri fran\,cois des contre-danse ancienne tel quil se danse chez la Reine ..." 1760 p.34 #1 dance 11 #4
S: http://memory.loc.gov/cgi-bin/query/D?musdibib:2:./temp/~ammem_EbRS:
Z: 2014 John Chambers <jc:trillian.mit.edu>
M: 6/8
L: 1/8
K: D
% - - - - - - - - - - - - - - - - - - - - - - - - -
!segno!A |\
(F2D) (E2A) | (F2D) (E2G) | FGF EFE | D2D D2A |\
(F2D) (E2A) | (F2D) (E2G) | FGF EFE | D2D D2 |]
"1.F."A |\
d2d c2c | B2B A2A | G2G F2F | EDE D2A |\
d2d c2c | B2B A2A | G2G F2F | EDE D2A |
F2F F2B | ^G2G G2e | dBd cAc | B2E E2e |\
(c2A) (B2d) | (c2A) (B2d) | cdc BAB | A2A A2e |
(c2A) (B2d) | (c2A) (B2d) | cdc BAB | A2A A2a |\
afa geg | fdf e2A | AFA GEG | FDF E3 |\
E3 HE2 !segno!y |]
% - - - - - - - - - - - - - - - - - - - - - - - - -

%%sep 1 1 500
%%sep 1 1 500
